Newaita-dark/.places-ubuntu/64/user-desktop.svg

<?xml version="1.0" encoding="UTF-8"?>
<svg xmlns="http://www.w3.org/2000/svg" xmlns:xlink="http://www.w3.org/1999/xlink" width="64px" height="64px" viewBox="0 0 64 64" version="1.1">
<defs>
<linearGradient id="linear0" gradientUnits="userSpaceOnUse" x1="254" y1="233.5" x2="254" y2="254.666672" gradientTransform="matrix(0.125012,0,0,0.125012,-0.00000763012,26.87757)">
<stop offset="0" style="stop-color:rgb(0%,0%,0%);stop-opacity:0.27451;"/>
<stop offset="1" style="stop-color:rgb(0%,0%,0%);stop-opacity:0;"/>
</linearGradient>
<radialGradient id="radial0" gradientUnits="userSpaceOnUse" cx="450.908936" cy="189.579361" fx="450.908936" fy="189.579361" r="21.166656" gradientTransform="matrix(0.000000348341,-0.156265,-0.281277,-0.000000203077,108.230425,127.190665)">
<stop offset="0" style="stop-color:rgb(0%,0%,0%);stop-opacity:0.313726;"/>
<stop offset="0.222222" style="stop-color:rgb(0%,0%,0%);stop-opacity:0.27451;"/>
<stop offset="1" style="stop-color:rgb(0%,0%,0%);stop-opacity:0;"/>
</radialGradient>
<radialGradient id="radial1" gradientUnits="userSpaceOnUse" cx="450.908936" cy="189.579361" fx="450.908936" fy="189.579361" r="21.166656" gradientTransform="matrix(-0.000000348341,0.156265,0.281277,0.000000203077,-44.724356,-15.054958)">
<stop offset="0" style="stop-color:rgb(0%,0%,0%);stop-opacity:0.313726;"/>
<stop offset="0.222222" style="stop-color:rgb(0%,0%,0%);stop-opacity:0.27451;"/>
<stop offset="1" style="stop-color:rgb(0%,0%,0%);stop-opacity:0;"/>
</radialGradient>
<radialGradient id="radial2" gradientUnits="userSpaceOnUse" cx="450.908936" cy="189.579361" fx="450.908936" fy="189.579361" r="21.166656" gradientTransform="matrix(-0.000000348341,-0.156265,0.281277,-0.000000203077,-44.724356,127.190665)">
<stop offset="0" style="stop-color:rgb(0%,0%,0%);stop-opacity:0.313726;"/>
<stop offset="0.222222" style="stop-color:rgb(0%,0%,0%);stop-opacity:0.27451;"/>
<stop offset="1" style="stop-color:rgb(0%,0%,0%);stop-opacity:0;"/>
</radialGradient>
<radialGradient id="radial3" gradientUnits="userSpaceOnUse" cx="450.908936" cy="189.579361" fx="450.908936" fy="189.579361" r="21.166656" gradientTransform="matrix(0.000000348341,0.156265,-0.281277,0.000000203077,108.230422,-15.054959)">
<stop offset="0" style="stop-color:rgb(0%,0%,0%);stop-opacity:0.313726;"/>
<stop offset="0.222222" style="stop-color:rgb(0%,0%,0%);stop-opacity:0.27451;"/>
<stop offset="1" style="stop-color:rgb(0%,0%,0%);stop-opacity:0;"/>
</radialGradient>
<linearGradient id="linear1" gradientUnits="userSpaceOnUse" x1="254" y1="233.5" x2="254" y2="-168.666656" gradientTransform="matrix(0.125012,0,0,0.125012,0,26.877566)">
<stop offset="0" style="stop-color:rgb(34.509805%,34.509805%,34.509805%);stop-opacity:0;"/>
<stop offset="1" style="stop-color:rgb(98.039216%,98.039216%,98.039216%);stop-opacity:0.196078;"/>
</linearGradient>
<linearGradient id="linear2" gradientUnits="userSpaceOnUse" x1="1040" y1="1695.118164" x2="1040" y2="1455.118164" gradientTransform="matrix(1,0,0,1,-0.00000251969,0)">
<stop offset="0" style="stop-color:rgb(34.509805%,34.509805%,34.509805%);stop-opacity:0;"/>
<stop offset="1" style="stop-color:rgb(98.039216%,98.039216%,98.039216%);stop-opacity:0.196078;"/>
</linearGradient>
</defs>
<g id="surface1">
<path style=" stroke:none;fill-rule:nonzero;fill:url(#linear0);" d="M 7.9375 56.066406 L 55.566406 56.066406 L 55.566406 58.714844 L 7.9375 58.714844 Z M 7.9375 56.066406 "/>
<path style=" stroke:none;fill-rule:nonzero;fill:url(#radial0);" d="M 55.566406 56.066406 L 60.859375 56.066406 L 60.859375 53.421875 L 55.566406 53.421875 Z M 55.566406 56.066406 "/>
<path style=" stroke:none;fill-rule:nonzero;fill:url(#radial1);" d="M 7.9375 56.066406 L 2.644531 56.066406 L 2.644531 58.714844 L 7.9375 58.714844 Z M 7.9375 56.066406 "/>
<path style=" stroke:none;fill-rule:nonzero;fill:url(#radial2);" d="M 7.9375 56.066406 L 2.644531 56.066406 L 2.644531 53.421875 L 7.9375 53.421875 Z M 7.9375 56.066406 "/>
<path style=" stroke:none;fill-rule:nonzero;fill:url(#radial3);" d="M 55.566406 56.066406 L 60.859375 56.066406 L 60.859375 58.714844 L 55.566406 58.714844 Z M 55.566406 56.066406 "/>
<path style=" stroke:none;fill-rule:nonzero;fill:rgb(25.882354%,25.882354%,25.882354%);fill-opacity:1;" d="M 3.96875 5.792969 L 59.535156 5.792969 C 61 5.792969 62.183594 6.976562 62.183594 8.4375 L 62.183594 53.421875 C 62.183594 54.882812 61 56.066406 59.535156 56.066406 L 3.96875 56.066406 C 2.507812 56.066406 1.324219 54.882812 1.324219 53.421875 L 1.324219 8.4375 C 1.324219 6.976562 2.507812 5.792969 3.96875 5.792969 Z M 3.96875 5.792969 "/>
<path style=" stroke:none;fill-rule:nonzero;fill:url(#linear1);" d="M 3.96875 5.792969 L 59.535156 5.792969 C 61 5.792969 62.183594 6.976562 62.183594 8.4375 L 62.183594 53.421875 C 62.183594 54.882812 61 56.066406 59.535156 56.066406 L 3.96875 56.066406 C 2.507812 56.066406 1.324219 54.882812 1.324219 53.421875 L 1.324219 8.4375 C 1.324219 6.976562 2.507812 5.792969 3.96875 5.792969 Z M 3.96875 5.792969 "/>
<path style=" stroke:none;fill-rule:nonzero;fill:rgb(90.196079%,90.196079%,90.196079%);fill-opacity:0.392157;" d="M 3.96875 5.949219 C 2.503906 5.949219 1.324219 7.132812 1.324219 8.597656 L 1.324219 8.925781 C 1.324219 7.460938 2.503906 6.277344 3.96875 6.28125 L 59.535156 6.28125 C 61.003906 6.277344 62.183594 7.460938 62.183594 8.925781 L 62.183594 8.597656 C 62.183594 7.132812 61.003906 5.949219 59.535156 5.949219 Z M 3.96875 5.949219 "/>
<path style=" stroke:none;fill-rule:nonzero;fill:rgb(12.941177%,12.941177%,12.941177%);fill-opacity:1;" d="M 3.96875 5.605469 C 2.402344 5.605469 1.136719 6.871094 1.136719 8.4375 L 1.136719 53.421875 C 1.136719 54.988281 2.402344 56.253906 3.96875 56.253906 L 59.535156 56.253906 C 61.101562 56.253906 62.371094 54.988281 62.371094 53.421875 L 62.371094 8.4375 C 62.371094 6.871094 61.101562 5.605469 59.535156 5.605469 Z M 3.96875 5.980469 L 59.535156 5.980469 C 60.902344 5.980469 61.996094 7.074219 61.996094 8.4375 L 61.996094 53.421875 C 61.996094 54.789062 60.902344 55.878906 59.535156 55.878906 L 3.96875 55.878906 C 2.605469 55.878906 1.511719 54.789062 1.511719 53.421875 L 1.511719 8.4375 C 1.511719 7.074219 2.605469 5.980469 3.96875 5.980469 Z M 3.96875 5.980469 "/>
<path style=" stroke:none;fill-rule:nonzero;fill:rgb(98.823529%,64.313728%,40.784314%);fill-opacity:1;" d="M 13.230469 48.128906 C 11.765625 48.128906 10.585938 49.308594 10.585938 50.777344 L 10.585938 56.066406 L 52.921875 56.066406 L 52.921875 50.777344 C 52.921875 49.308594 51.742188 48.128906 50.277344 48.128906 Z M 13.230469 48.128906 "/>
<path style=" stroke:none;fill-rule:nonzero;fill:rgb(0%,0%,0%);fill-opacity:0.196078;" d="M 3.96875 55.902344 C 2.503906 55.902344 1.324219 54.722656 1.324219 53.257812 L 1.324219 52.925781 C 1.324219 54.390625 2.503906 55.570312 3.96875 55.570312 L 59.535156 55.570312 C 61.003906 55.570312 62.183594 54.390625 62.183594 52.925781 L 62.183594 53.257812 C 62.183594 54.722656 61.003906 55.902344 59.535156 55.902344 Z M 3.96875 55.902344 "/>
<path style=" stroke:none;fill-rule:nonzero;fill:rgb(90.196079%,90.196079%,90.196079%);fill-opacity:0.392157;" d="M 13.230469 48.324219 C 11.765625 48.324219 10.585938 49.503906 10.585938 50.96875 L 10.585938 51.300781 C 10.585938 49.832031 11.765625 48.652344 13.230469 48.652344 L 50.277344 48.652344 C 51.742188 48.652344 52.921875 49.832031 52.921875 51.300781 L 52.921875 50.96875 C 52.921875 49.503906 51.742188 48.324219 50.277344 48.324219 Z M 13.230469 48.324219 "/>
<path style="fill-rule:nonzero;fill:url(#linear2);stroke-width:11.338583;stroke-linecap:round;stroke-linejoin:miter;stroke:rgb(12.941177%,12.941177%,12.941177%);stroke-opacity:1;stroke-miterlimit:4;" d="M 400.001193 1455.097342 C 355.714081 1455.097342 320.048194 1490.763229 320.048194 1535.16844 L 320.048194 1695.074438 L 1600.004772 1695.074438 L 1600.004772 1535.16844 C 1600.004772 1490.763229 1564.338884 1455.097342 1520.051773 1455.097342 Z M 400.001193 1455.097342 " transform="matrix(0.0330761,0,0,0.0330761,0,0)"/>
<path style=" stroke:none;fill-rule:nonzero;fill:rgb(95.294118%,39.215687%,20.392157%);fill-opacity:1;" d="M 14.554688 50.777344 C 13.820312 50.777344 13.230469 51.367188 13.230469 52.097656 C 13.230469 52.832031 13.820312 53.421875 14.554688 53.421875 C 15.285156 53.421875 15.875 52.832031 15.875 52.097656 C 15.875 51.367188 15.285156 50.777344 14.554688 50.777344 Z M 19.84375 50.777344 C 19.113281 50.777344 18.523438 51.367188 18.523438 52.097656 C 18.523438 52.832031 19.113281 53.421875 19.84375 53.421875 C 20.578125 53.421875 21.167969 52.832031 21.167969 52.097656 C 21.167969 51.367188 20.578125 50.777344 19.84375 50.777344 Z M 25.136719 50.777344 C 24.40625 50.777344 23.816406 51.367188 23.816406 52.097656 C 23.816406 52.832031 24.40625 53.421875 25.136719 53.421875 C 25.871094 53.421875 26.460938 52.832031 26.460938 52.097656 C 26.460938 51.367188 25.871094 50.777344 25.136719 50.777344 Z M 48.953125 50.777344 C 48.21875 50.777344 47.628906 51.367188 47.628906 52.097656 C 47.628906 52.832031 48.21875 53.421875 48.953125 53.421875 C 49.6875 53.421875 50.277344 52.832031 50.277344 52.097656 C 50.277344 51.367188 49.6875 50.777344 48.953125 50.777344 Z M 48.953125 50.777344 "/>
<path style=" stroke:none;fill-rule:nonzero;fill:rgb(0%,0%,0%);fill-opacity:0.235294;" d="M 14.554688 50.777344 C 13.820312 50.777344 13.230469 51.367188 13.230469 52.097656 C 13.230469 52.183594 13.238281 52.265625 13.253906 52.347656 C 13.371094 51.734375 13.90625 51.273438 14.554688 51.273438 C 15.203125 51.273438 15.738281 51.734375 15.851562 52.347656 C 15.867188 52.265625 15.875 52.183594 15.875 52.097656 C 15.875 51.367188 15.285156 50.777344 14.554688 50.777344 Z M 19.84375 50.777344 C 19.113281 50.777344 18.523438 51.367188 18.523438 52.097656 C 18.523438 52.183594 18.53125 52.265625 18.546875 52.347656 C 18.660156 51.734375 19.199219 51.273438 19.84375 51.273438 C 20.492188 51.273438 21.03125 51.734375 21.144531 52.347656 C 21.160156 52.265625 21.167969 52.183594 21.167969 52.097656 C 21.167969 51.367188 20.578125 50.777344 19.84375 50.777344 Z M 25.136719 50.777344 C 24.40625 50.777344 23.816406 51.367188 23.816406 52.097656 C 23.816406 52.183594 23.824219 52.265625 23.839844 52.347656 C 23.953125 51.734375 24.488281 51.273438 25.136719 51.273438 C 25.785156 51.273438 26.320312 51.734375 26.4375 52.347656 C 26.453125 52.265625 26.460938 52.183594 26.460938 52.097656 C 26.460938 51.367188 25.871094 50.777344 25.136719 50.777344 Z M 48.953125 50.777344 C 48.21875 50.777344 47.628906 51.367188 47.628906 52.097656 C 47.628906 52.183594 47.636719 52.265625 47.652344 52.347656 C 47.769531 51.734375 48.304688 51.273438 48.953125 51.273438 C 49.601562 51.273438 50.136719 51.734375 50.253906 52.347656 C 50.265625 52.265625 50.277344 52.183594 50.277344 52.097656 C 50.277344 51.367188 49.6875 50.777344 48.953125 50.777344 Z M 48.953125 50.777344 "/>
<path style=" stroke:none;fill-rule:nonzero;fill:rgb(100%,100%,100%);fill-opacity:0.392157;" d="M 13.253906 52.347656 C 13.238281 52.425781 13.230469 52.511719 13.230469 52.59375 C 13.230469 53.328125 13.820312 53.917969 14.554688 53.917969 C 15.285156 53.917969 15.875 53.328125 15.875 52.59375 C 15.875 52.511719 15.867188 52.425781 15.851562 52.347656 C 15.738281 52.960938 15.203125 53.421875 14.554688 53.421875 C 13.90625 53.421875 13.371094 52.960938 13.253906 52.347656 Z M 18.546875 52.347656 C 18.53125 52.425781 18.523438 52.511719 18.523438 52.59375 C 18.523438 53.328125 19.113281 53.917969 19.84375 53.917969 C 20.578125 53.917969 21.167969 53.328125 21.167969 52.59375 C 21.167969 52.511719 21.160156 52.425781 21.144531 52.347656 C 21.03125 52.960938 20.492188 53.421875 19.84375 53.421875 C 19.199219 53.421875 18.660156 52.960938 18.546875 52.347656 Z M 23.839844 52.347656 C 23.824219 52.425781 23.816406 52.511719 23.816406 52.59375 C 23.816406 53.328125 24.40625 53.917969 25.136719 53.917969 C 25.871094 53.917969 26.460938 53.328125 26.460938 52.59375 C 26.460938 52.511719 26.453125 52.425781 26.4375 52.347656 C 26.320312 52.960938 25.785156 53.421875 25.136719 53.421875 C 24.488281 53.421875 23.953125 52.960938 23.839844 52.347656 Z M 47.652344 52.347656 C 47.636719 52.425781 47.628906 52.511719 47.628906 52.59375 C 47.628906 53.328125 48.21875 53.917969 48.953125 53.917969 C 49.6875 53.917969 50.277344 53.328125 50.277344 52.59375 C 50.277344 52.511719 50.265625 52.425781 50.253906 52.347656 C 50.136719 52.960938 49.601562 53.421875 48.953125 53.421875 C 48.304688 53.421875 47.769531 52.960938 47.652344 52.347656 Z M 47.652344 52.347656 "/>
<path style="fill:none;stroke-width:11.338583;stroke-linecap:round;stroke-linejoin:miter;stroke:rgb(12.941177%,12.941177%,12.941177%);stroke-opacity:1;stroke-miterlimit:4;" d="M 440.036742 1535.16844 C 417.834137 1535.16844 400.001193 1553.001384 400.001193 1575.08589 C 400.001193 1597.288495 417.834137 1615.121439 440.036742 1615.121439 C 462.121248 1615.121439 479.954192 1597.288495 479.954192 1575.08589 C 479.954192 1553.001384 462.121248 1535.16844 440.036742 1535.16844 Z M 599.94274 1535.16844 C 577.858233 1535.16844 560.02529 1553.001384 560.02529 1575.08589 C 560.02529 1597.288495 577.858233 1615.121439 599.94274 1615.121439 C 622.145345 1615.121439 639.978289 1597.288495 639.978289 1575.08589 C 639.978289 1553.001384 622.145345 1535.16844 599.94274 1535.16844 Z M 759.966837 1535.16844 C 737.88233 1535.16844 720.049387 1553.001384 720.049387 1575.08589 C 720.049387 1597.288495 737.88233 1615.121439 759.966837 1615.121439 C 782.169442 1615.121439 800.002386 1597.288495 800.002386 1575.08589 C 800.002386 1553.001384 782.169442 1535.16844 759.966837 1535.16844 Z M 1480.016224 1535.16844 C 1457.813618 1535.16844 1439.980675 1553.001384 1439.980675 1575.08589 C 1439.980675 1597.288495 1457.813618 1615.121439 1480.016224 1615.121439 C 1502.218829 1615.121439 1520.051773 1597.288495 1520.051773 1575.08589 C 1520.051773 1553.001384 1502.218829 1535.16844 1480.016224 1535.16844 Z M 1480.016224 1535.16844 " transform="matrix(0.0330761,0,0,0.0330761,0,0)"/>
</g>
</svg>

<svg xmlns="http://www.w3.org/2000/svg" width="64pt" height="64pt" viewBox="0 0 64 64"><defs><linearGradient id="a" gradientUnits="userSpaceOnUse" x1="254" y1="233.5" x2="254" y2="254.667" gradientTransform="translate(0 26.878) scale(.12501)"><stop offset="0" stop-opacity=".275"/><stop offset="1" stop-opacity="0"/></linearGradient><radialGradient id="b" gradientUnits="userSpaceOnUse" cx="450.909" cy="189.579" fx="450.909" fy="189.579" r="21.167" gradientTransform="matrix(0 -.15626 -.28128 0 108.23 127.19)"><stop offset="0" stop-opacity=".314"/><stop offset=".222" stop-opacity=".275"/><stop offset="1" stop-opacity="0"/></radialGradient><radialGradient id="c" gradientUnits="userSpaceOnUse" cx="450.909" cy="189.579" fx="450.909" fy="189.579" r="21.167" gradientTransform="matrix(0 .15626 .28128 0 -44.724 -15.055)"><stop offset="0" stop-opacity=".314"/><stop offset=".222" stop-opacity=".275"/><stop offset="1" stop-opacity="0"/></radialGradient><radialGradient id="d" gradientUnits="userSpaceOnUse" cx="450.909" cy="189.579" fx="450.909" fy="189.579" r="21.167" gradientTransform="matrix(0 -.15626 .28128 0 -44.724 127.19)"><stop offset="0" stop-opacity=".314"/><stop offset=".222" stop-opacity=".275"/><stop offset="1" stop-opacity="0"/></radialGradient><radialGradient id="e" gradientUnits="userSpaceOnUse" cx="450.909" cy="189.579" fx="450.909" fy="189.579" r="21.167" gradientTransform="matrix(0 .15626 -.28128 0 108.23 -15.055)"><stop offset="0" stop-opacity=".314"/><stop offset=".222" stop-opacity=".275"/><stop offset="1" stop-opacity="0"/></radialGradient><linearGradient id="f" gradientUnits="userSpaceOnUse" x1="254" y1="233.5" x2="254" y2="-168.667" gradientTransform="translate(0 26.878) scale(.12501)"><stop offset="0" stop-color="#585858" stop-opacity="0"/><stop offset="1" stop-color="#fafafa" stop-opacity=".196"/></linearGradient><linearGradient id="g" gradientUnits="userSpaceOnUse" x1="1040" y1="1695.118" x2="1040" y2="1455.118"><stop offset="0" stop-color="#585858" stop-opacity="0"/><stop offset="1" stop-color="#fafafa" stop-opacity=".196"/></linearGradient></defs><path d="M7.938 56.066h47.628v2.649H7.937zm0 0" fill="url(#a)"/><path d="M55.566 56.066h5.293v-2.644h-5.293zm0 0" fill="url(#b)"/><path d="M7.938 56.066H2.644v2.649h5.292zm0 0" fill="url(#c)"/><path d="M7.938 56.066H2.644v-2.644h5.292zm0 0" fill="url(#d)"/><path d="M55.566 56.066h5.293v2.649h-5.293zm0 0" fill="url(#e)"/><path d="M3.969 5.793h55.566a2.645 2.645 0 0 1 2.649 2.644v44.985a2.645 2.645 0 0 1-2.649 2.644H3.97a2.644 2.644 0 0 1-2.645-2.644V8.438A2.644 2.644 0 0 1 3.97 5.793zm0 0" fill="#424242"/><path d="M3.969 5.793h55.566a2.645 2.645 0 0 1 2.649 2.644v44.985a2.645 2.645 0 0 1-2.649 2.644H3.97a2.644 2.644 0 0 1-2.645-2.644V8.438A2.644 2.644 0 0 1 3.97 5.793zm0 0" fill="url(#f)"/><path d="M3.969 5.95a2.642 2.642 0 0 0-2.645 2.648v.328A2.637 2.637 0 0 1 3.97 6.28h55.566a2.637 2.637 0 0 1 2.649 2.645v-.328a2.643 2.643 0 0 0-2.649-2.649zm0 0" fill="#e6e6e6" fill-opacity=".392"/><path d="M3.969 5.605a2.83 2.83 0 0 0-2.832 2.832v44.985a2.83 2.83 0 0 0 2.832 2.832h55.566a2.832 2.832 0 0 0 2.836-2.832V8.438a2.832 2.832 0 0 0-2.836-2.833zm0 .375h55.566a2.45 2.45 0 0 1 2.461 2.457v44.985a2.447 2.447 0 0 1-2.46 2.457H3.968a2.447 2.447 0 0 1-2.457-2.457V8.438A2.449 2.449 0 0 1 3.969 5.98zm0 0" fill="#212121"/><path d="M13.23 48.129a2.64 2.64 0 0 0-2.644 2.648v5.29h42.336v-5.29a2.64 2.64 0 0 0-2.645-2.648zm0 0" fill="#e46d43"/><path d="M3.969 55.902a2.639 2.639 0 0 1-2.645-2.644v-.332A2.639 2.639 0 0 0 3.97 55.57h55.566a2.64 2.64 0 0 0 2.649-2.644v.332a2.64 2.64 0 0 1-2.649 2.644zm0 0" fill-opacity=".196"/><path d="M13.23 48.324a2.639 2.639 0 0 0-2.644 2.645v.332a2.64 2.64 0 0 1 2.644-2.649h37.047a2.64 2.64 0 0 1 2.645 2.649v-.332a2.639 2.639 0 0 0-2.645-2.645zm0 0" fill="#e6e6e6" fill-opacity=".392"/><path d="M400.001 1455.097c-44.287 0-79.953 35.666-79.953 80.071v159.906h1279.957v-159.906c0-44.405-35.666-80.07-79.953-80.07zm0 0" transform="scale(.03308)" fill="url(#g)" stroke-width="11.339" stroke-linecap="round" stroke="#212121"/><path d="M14.555 50.777a1.32 1.32 0 0 0-1.325 1.32c0 .735.59 1.325 1.325 1.325.73 0 1.32-.59 1.32-1.324 0-.73-.59-1.32-1.32-1.32zm5.289 0c-.73 0-1.32.59-1.32 1.32 0 .735.59 1.325 1.32 1.325a1.32 1.32 0 0 0 1.324-1.324c0-.73-.59-1.32-1.324-1.32zm5.293 0c-.73 0-1.32.59-1.32 1.32 0 .735.59 1.325 1.32 1.325a1.32 1.32 0 0 0 1.324-1.324c0-.73-.59-1.32-1.324-1.32zm23.816 0a1.32 1.32 0 0 0-1.324 1.32c0 .735.59 1.325 1.324 1.325a1.32 1.32 0 0 0 1.324-1.324c0-.73-.59-1.32-1.324-1.32zm0 0" fill="#424242"/><path d="M14.555 50.777a1.32 1.32 0 0 0-1.325 1.32c0 .735.59 1.325 1.325 1.325.73 0 1.32-.59 1.32-1.324 0-.73-.59-1.32-1.32-1.32zm5.289 0c-.73 0-1.32.59-1.32 1.32 0 .735.59 1.325 1.32 1.325a1.32 1.32 0 0 0 1.324-1.324c0-.73-.59-1.32-1.324-1.32zm5.293 0c-.73 0-1.32.59-1.32 1.32 0 .735.59 1.325 1.32 1.325a1.32 1.32 0 0 0 1.324-1.324c0-.73-.59-1.32-1.324-1.32zm23.816 0a1.32 1.32 0 0 0-1.324 1.32c0 .735.59 1.325 1.324 1.325a1.32 1.32 0 0 0 1.324-1.324c0-.73-.59-1.32-1.324-1.32zm0 0" fill="#7e5273" stroke-width=".37503000000000003" stroke-linecap="round" stroke="#212121"/></svg>
